X: 11393
T: Early Morning, The
R: jig
M: 6/8
K: Amixolydian
|:e2e edc|g2g gfe|f2f fed|Bcd efd|
e2e edc|g2g gfe|f3 fed|cBG A3:|
|:B3 Bcd|f3 fgf|e2 c2 A2|f2 d2 B2|
B3 Bcd|f3 fgf|e2a aga|e2a a2a:|

